material-icons/tank.svg

<?xml version="1.0" encoding="UTF-8" standalone="no"?>
<svg
   xmlns:dc="http://purl.org/dc/elements/1.1/"
   xmlns:cc="http://creativecommons.org/ns#"
   xmlns:rdf="http://www.w3.org/1999/02/22-rdf-syntax-ns#"
   xmlns:svg="http://www.w3.org/2000/svg"
   xmlns="http://www.w3.org/2000/svg"
   xmlns:sodipodi="http://sodipodi.sourceforge.net/DTD/sodipodi-0.dtd"
   xmlns:inkscape="http://www.inkscape.org/namespaces/inkscape"
   enable-background="new 0 0 24.00 24.00"
   height="24"
   id="svg3546"
   inkscape:version="0.91 r13725"
   sodipodi:docname="tank.svg"
   version="1.1"
   viewBox="0 0 24.00 24.00"
   width="24"
   xml:space="preserve"><metadata
     id="metadata3566"><rdf:RDF><cc:Work
         rdf:about=""><dc:format>image/svg+xml</dc:format><dc:type
           rdf:resource="http://purl.org/dc/dcmitype/StillImage" /><dc:title /></cc:Work></rdf:RDF></metadata><defs
     id="defs3564" /><sodipodi:namedview
     bordercolor="#666666"
     borderopacity="1"
     gridtolerance="10"
     guidetolerance="10"
     id="namedview3562"
     inkscape:current-layer="layer11"
     inkscape:cx="9.0573339"
     inkscape:cy="8.0239651"
     inkscape:pageopacity="0"
     inkscape:pageshadow="2"
     inkscape:window-height="1040"
     inkscape:window-maximized="0"
     inkscape:window-width="1348"
     inkscape:window-x="1981"
     inkscape:window-y="39"
     inkscape:zoom="18.36"
     objecttolerance="10"
     pagecolor="#ffffff"
     showgrid="true"><inkscape:grid
       id="grid3568"
       type="xygrid" /></sodipodi:namedview><g
     id="layer11"
     inkscape:groupmode="layer"
     inkscape:label="tank"><path
       d="M 19.070312,3.515625 14.753906,7.8320312 A 5,5 0 0 0 12,7 5,5 0 0 0 7,12 l -2.9804688,0 0,2 L 4,14 a 2,2 0 0 0 -2,2 2,2 0 0 0 2,2 l 16,0 a 2,2 0 0 0 2,-2 2,2 0 0 0 -1.980469,-2 l 0,-2 L 17,12 A 5,5 0 0 0 16.167969,9.246094 L 20.484375,4.9296875 19.070312,3.515625 Z"
       id="path4699"
       inkscape:connector-curvature="0"
       style="opacity:1;fill:#000000;fill-opacity:1;stroke:none;stroke-width:0.1;stroke-linecap:round;stroke-miterlimit:4;stroke-dasharray:none;stroke-opacity:1" /></g></svg>

<svg xmlns="http://www.w3.org/2000/svg" enable-background="new 0 0 24.00 24.00" viewBox="0 0 24.00 24.00"><path d="m19.07 3.516l-4.316 4.316a5 5 0 0 0 -2.753906 -.832031 5 5 0 0 0 -5 5h-2.98v2h-.02a2 2 0 0 0 -2 2 2 2 0 0 0 2 2h16a2 2 0 0 0 2 -2 2 2 0 0 0 -1.980469 -2v-2h-3.02a5 5 0 0 0 -.832031 -2.753906l4.316-4.316-1.414-1.414"/></svg>
